X: 100
T:Maudabawn Chapel
M:C|
C:Ed Reavy (1898-1988)
R:reel
Z:id:hn-reel-62 : Gary Chapin,  20/6/1999
K:Edor
~G3D E2DB,|G,A,B,D EB,DB,|G,A,B,D GABd|gabg eaaf|
gabg efge|dged B^cde|g2fa gedB|A=cBA GEED:|
|:E2BE dEBE|E2BE AFDF|~E3F GFGB|AF~F2 DF~F2|
EBBA ~B3A|BAGA B^cde|~f3a gfe^c|dBAF GEED:|
"Variations:"
G2FG EGDB,|G,A,B,D EB,DB,|G,A,B,D EGBd|gbag ea~a2|
gbag egfe|dged B^cde|g2fa gedB|A=cBA GEED:|
|:E2BE dEBE|Ed^cB AFDF|~E3F GFGB|AFDF A,DFD|
EBBA B^cdA|BAGA B^cde|~f3a gfe^c|dBAF GEED:|

